src/assets/images/icon_lock.svg

<svg width="16" height="16" viewBox="0 0 16 16" fill="none" xmlns="http://www.w3.org/2000/svg">
<g id="Lock 2">
<g id="surface1201">
<path id="Vector" d="M7.9974 1.32812C6.53038 1.32812 5.33073 2.52778 5.33073 3.99479V5.32812H4.16406C3.33767 5.32812 2.66406 6.00174 2.66406 6.82812V13.1615C2.66406 13.9878 3.33767 14.6615 4.16406 14.6615H11.8307C12.6571 14.6615 13.3307 13.9878 13.3307 13.1615V6.82812C13.3307 6.00174 12.6571 5.32812 11.8307 5.32812H10.6641V3.99479C10.6641 2.52778 9.46441 1.32812 7.9974 1.32812ZM7.9974 2.32812C8.92448 2.32812 9.66406 3.06771 9.66406 3.99479V5.32812H6.33073V3.99479C6.33073 3.06771 7.07031 2.32812 7.9974 2.32812ZM7.9974 8.99479C8.54948 8.99479 8.9974 9.44271 8.9974 9.99479C8.9974 10.5469 8.54948 10.9948 7.9974 10.9948C7.44531 10.9948 6.9974 10.5469 6.9974 9.99479C6.9974 9.44271 7.44531 8.99479 7.9974 8.99479Z" fill="#1E5B47"/>
</g>
</g>
</svg>

<svg width="16" height="16" fill="none" xmlns="http://www.w3.org/2000/svg"><path d="M7.997 1.328a2.674 2.674 0 0 0-2.666 2.667v1.333H4.164c-.826 0-1.5.674-1.5 1.5v6.333c0 .827.674 1.5 1.5 1.5h7.667c.826 0 1.5-.673 1.5-1.5V6.829c0-.826-.674-1.5-1.5-1.5h-1.167V3.995c0-1.467-1.2-2.667-2.667-2.667zm0 1c.927 0 1.667.74 1.667 1.667v1.333H6.331V3.995c0-.927.74-1.667 1.666-1.667zm0 6.667a1 1 0 1 1 0 2 1 1 0 0 1 0-2z" fill="#1E5B47"/></svg>
